resources/svg/skype.svg

<svg xmlns="http://www.w3.org/2000/svg" viewBox="0 0 24 24" fill="currentColor"><path fill="currentColor" fill-rule="evenodd" d="M12.05175,18.85575 C8.025,18.85575 6.22425,16.8765 6.22425,15.393 C6.22425,14.63175 6.786,14.0985 7.56,14.0985 C9.2835,14.0985 8.83725,16.57275 12.05175,16.57275 C13.69725,16.57275 14.60625,15.67875 14.60625,14.7645 C14.60625,14.21475 14.33475,13.605 13.251,13.338 L9.66975,12.444 C6.786,11.721 6.2625,10.16175 6.2625,8.69625 C6.2625,5.65275 9.1275,4.5105 11.8185,4.5105 C14.2965,4.5105 17.2185,5.88 17.2185,7.7055 C17.2185,8.48775 16.54125,8.943 15.76725,8.943 C14.2965,8.943 14.56725,6.9075 11.6055,6.9075 C10.1355,6.9075 9.32175,7.5735 9.32175,8.526 C9.32175,9.47625 10.48275,9.78 11.49,10.0095 L14.14125,10.59825 C17.0445,11.24475 17.78025,12.93975 17.78025,14.5365 C17.78025,17.00925 15.88275,18.85575 12.05175,18.85575 M23.15025,13.9695 C23.14275,14.0115 23.1375,14.05425 23.12925,14.09625 L23.08875,13.85475 C23.1105,13.89225 23.12925,13.93125 23.15025,13.9695 C23.274,13.29525 23.33925,12.60525 23.33925,11.91525 C23.33925,10.38525 23.03925,8.901 22.44825,7.50375 C21.87675,6.1545 21.06075,4.9425 20.019,3.9015 C18.97875,2.8605 17.766,2.04375 16.41675,1.473 C15.02025,0.882 13.536,0.58275 12.00675,0.58275 C11.28525,0.58275 10.563,0.65025 9.86025,0.78525 C9.85875,0.78525 9.85725,0.78525 9.855,0.786 C9.89475,0.807 9.9345,0.82575 9.9735,0.8475 L9.735,0.81 C9.77475,0.8025 9.81525,0.79425 9.855,0.786 C8.8905,0.27375 7.80675,0 6.70875,0 C4.917,0 3.23175,0.6975 1.965,1.965 C0.69825,3.23175 0,4.917 0,6.7095 C0,7.8495 0.29325,8.97075 0.84375,9.96225 C0.8505,9.921 0.85575,9.879 0.864,9.8385 L0.90525,10.07625 C0.8835,10.03875 0.86475,9.99975 0.84375,9.96225 C0.732,10.6035 0.67275,11.25975 0.67275,11.91525 C0.67275,13.44525 0.97275,14.9295 1.5645,16.32675 C2.1345,17.67675 2.952,18.888 3.99225,19.929 C5.03325,20.96925 6.2445,21.7875 7.59525,22.35675 C8.99175,22.94925 10.47675,23.2485 12.00675,23.2485 C12.672,23.2485 13.3395,23.18775 13.99125,23.07225 C13.953,23.05125 13.914,23.03175 13.87575,23.00925 L14.118,23.052 C14.076,23.0595 14.034,23.06475 13.99125,23.07225 C14.99475,23.64075 16.131,23.94225 17.29125,23.94225 C19.08375,23.94225 20.7675,23.2455 22.035,21.97725 C23.3025,20.71125 24,19.026 24,17.2335 C24,16.089 23.70525,14.964 23.15025,13.9695"/></svg>

<svg viewBox="0 0 24 24"><path fill="currentColor" fill-rule="evenodd" d="M12.052 18.856c-4.027 0-5.828-1.98-5.828-3.463c0-.761.562-1.295 1.336-1.295c1.724 0 1.277 2.475 4.492 2.475c1.645 0 2.554-.894 2.554-1.809c0-.55-.271-1.159-1.355-1.426l-3.581-.894c-2.884-.723-3.407-2.282-3.407-3.748c0-3.043 2.864-4.185 5.556-4.185c2.477 0 5.4 1.369 5.4 3.194c0 .783-.678 1.238-1.452 1.238c-1.47 0-1.2-2.035-4.162-2.035c-1.47 0-2.283.665-2.283 1.618c0 .95 1.16 1.254 2.168 1.483l2.651.59c2.903.646 3.64 2.34 3.64 3.938c0 2.472-1.898 4.319-5.73 4.319m11.1-4.887l-.022.127l-.04-.241c.021.037.04.076.061.114c.124-.674.19-1.364.19-2.054a11.297 11.297 0 0 0-3.32-8.014A11.287 11.287 0 0 0 12.006.583c-.722 0-1.444.067-2.147.202l-.005.001c.04.021.08.04.118.061L9.736.81l.12-.024A6.722 6.722 0 0 0 6.709 0a6.663 6.663 0 0 0-4.744 1.965A6.666 6.666 0 0 0 0 6.71c0 1.14.293 2.26.844 3.252c.007-.041.012-.083.02-.123l.041.237C.883 10.04.865 10 .844 9.962a11.402 11.402 0 0 0-.171 1.953c0 1.53.3 3.015.891 4.412a11.285 11.285 0 0 0 2.428 3.602a11.268 11.268 0 0 0 3.603 2.428c1.397.592 2.882.892 4.412.892c.665 0 1.332-.061 1.984-.177c-.038-.02-.077-.04-.115-.063l.242.043c-.042.008-.084.013-.127.02c1.004.569 2.14.87 3.3.87a6.66 6.66 0 0 0 4.744-1.965A6.66 6.66 0 0 0 24 17.233c0-1.144-.295-2.269-.85-3.264"/></svg>
